_includes/icons/color-flag-filled.svg

<svg fill="#666" height="50" viewBox="0 0 48 48" width="50" xmlns="http://www.w3.org/2000/svg"><path d="m10 4h2v40h-2z" fill="#455a64"/><path d="m12 6 26 13-26 13z" fill="#ff3d00"/><path d="m10 6h2v26h-2z" fill="#dd2c00"/></svg>

<svg xmlns="http://www.w3.org/2000/svg" viewBox="0 0 48 48" width="50" height="50" fill="#666"><path d="M 10 4 L 12 4 L 12 44 L 10 44 Z" fill="#455a64"/><path d="M 12 6 L 38 19 L 12 32 Z" fill="#ff3d00"/><path d="M 10 6 L 12 6 L 12 32 L 10 32 Z" fill="#dd2c00"/></svg>
